modules/images/auto-sizes/.wordpress-org/icon.svg

<svg xmlns="http://www.w3.org/2000/svg" width="297" height="297" fill="none"><rect width="297" height="297" fill="#0073AA" rx="46"/><path fill="#fff" d="M90.19 146.311H69.327A4.326 4.326 0 0 1 65 141.985v-24.427c0-1.468.577-2.878 1.606-3.925l11.911-12.112A5.089 5.089 0 0 1 82.146 100h43.367c1.335 0 2.616.524 3.568 1.46l12.489 12.281a4.329 4.329 0 0 1 1.293 3.085v25.159a4.326 4.326 0 0 1-4.326 4.326h-20.865a4.326 4.326 0 0 1-4.326-4.326v-22.647a4.325 4.325 0 0 0-4.326-4.325H98.842a4.325 4.325 0 0 0-4.325 4.325v22.647a4.326 4.326 0 0 1-4.326 4.326ZM94.517 169.338v23.028a4.326 4.326 0 0 1-4.326 4.326H70.09A5.09 5.09 0 0 1 65 191.603v-37.15a4.326 4.326 0 0 1 4.326-4.326h35.623a4.326 4.326 0 0 1 4.326 4.326v6.234a4.325 4.325 0 0 1-4.326 4.325h-6.106a4.326 4.326 0 0 0-4.326 4.326ZM142.862 179.51v-25.057a4.325 4.325 0 0 0-4.325-4.326h-20.866a4.325 4.325 0 0 0-4.325 4.326v37.828c0 3.379 3.701 5.453 6.584 3.689l20.865-12.771a4.325 4.325 0 0 0 2.067-3.689ZM228.942 100h-20.866a4.325 4.325 0 0 0-4.325 4.326v36.896a5.088 5.088 0 0 0 5.089 5.089h19.338a5.088 5.088 0 0 0 5.089-5.089v-36.896a4.325 4.325 0 0 0-4.325-4.326ZM180.595 100H159.73a4.326 4.326 0 0 0-4.326 4.326v36.896a5.09 5.09 0 0 0 5.09 5.089h19.338a5.088 5.088 0 0 0 5.089-5.089v-36.896a4.326 4.326 0 0 0-4.326-4.326ZM180.595 150.127H159.73a4.326 4.326 0 0 0-4.326 4.326v25.107c0 1.517.617 2.97 1.708 4.024l12.08 11.678a5.086 5.086 0 0 0 3.537 1.43h43.213c1.32 0 2.588-.512 3.537-1.43l12.469-12.053a4.325 4.325 0 0 0 1.319-3.11v-25.646a4.325 4.325 0 0 0-4.325-4.326h-20.866a4.325 4.325 0 0 0-4.325 4.326v22.901a4.326 4.326 0 0 1-4.326 4.326h-10.178a4.326 4.326 0 0 1-4.326-4.326v-22.901a4.326 4.326 0 0 0-4.326-4.326Z"/></svg>

<svg width="297" height="297" viewBox="0 0 297 297" fill="none" xmlns="http://www.w3.org/2000/svg">
<rect width="297" height="297" rx="46" fill="#0073AA"/>
<path d="M90.1909 146.311L69.3257 146.311C66.9367 146.311 65 144.374 65 141.985L65 117.558C65 116.09 65.577 114.68 66.6065 113.633L78.5172 101.521C79.4739 100.548 80.7813 100 82.1458 100L125.513 100C126.848 100 128.129 100.524 129.081 101.46L141.57 113.741C142.397 114.555 142.863 115.666 142.863 116.826L142.863 141.985C142.863 144.374 140.926 146.311 138.537 146.311L117.672 146.311C115.283 146.311 113.346 144.374 113.346 141.985L113.346 119.338C113.346 116.949 111.41 115.013 109.02 115.013L98.8424 115.013C96.4533 115.013 94.5166 116.949 94.5166 119.338L94.5166 141.985C94.5166 144.374 92.58 146.311 90.1909 146.311Z" fill="white"/>
<path d="M94.5168 169.338V192.366C94.5168 194.755 92.5801 196.692 90.1911 196.692H70.0894C67.2787 196.692 65.0003 194.413 65.0003 191.603V165.012V154.453C65.0003 152.064 66.937 150.127 69.326 150.127L104.949 150.127C107.338 150.127 109.275 152.064 109.275 154.453V160.687C109.275 163.076 107.338 165.012 104.949 165.012H98.8425C96.4535 165.012 94.5168 166.949 94.5168 169.338Z" fill="white"/>
<path d="M142.862 179.51V154.453C142.862 152.064 140.926 150.127 138.537 150.127H117.671C115.282 150.127 113.346 152.064 113.346 154.453V192.281C113.346 195.66 117.047 197.734 119.93 195.97L140.795 183.199C142.079 182.413 142.862 181.016 142.862 179.51Z" fill="white"/>
<path d="M228.942 100L208.076 100C205.687 100 203.751 101.937 203.751 104.326L203.751 141.222C203.751 144.033 206.029 146.311 208.84 146.311L228.178 146.311C230.989 146.311 233.267 144.033 233.267 141.222L233.267 104.326C233.267 101.937 231.331 100 228.942 100Z" fill="white"/>
<path d="M180.595 100L159.73 100C157.341 100 155.404 101.937 155.404 104.326L155.404 141.222C155.404 144.033 157.683 146.311 160.494 146.311L179.832 146.311C182.643 146.311 184.921 144.033 184.921 141.222L184.921 104.326C184.921 101.937 182.984 100 180.595 100Z" fill="white"/>
<path d="M180.595 150.127L159.73 150.127C157.341 150.127 155.404 152.064 155.404 154.453L155.404 179.56C155.404 181.077 156.021 182.53 157.112 183.584L169.192 195.262C170.141 196.18 171.409 196.692 172.729 196.692L215.942 196.692C217.262 196.692 218.53 196.18 219.479 195.262L231.948 183.209C232.791 182.394 233.267 181.272 233.267 180.099L233.267 154.453C233.267 152.064 231.331 150.127 228.942 150.127L208.076 150.127C205.687 150.127 203.751 152.064 203.751 154.453L203.751 177.354C203.751 179.743 201.814 181.68 199.425 181.68L189.247 181.68C186.858 181.68 184.921 179.743 184.921 177.354L184.921 154.453C184.921 152.064 182.984 150.127 180.595 150.127Z" fill="white"/>
</svg>
